assets/img/flag.svg

<?xml version="1.0" encoding="utf-8"?>
<!-- Generator: Adobe Illustrator 21.1.0, SVG Export Plug-In . SVG Version: 6.00 Build 0)  -->
<svg version="1.1" id="Слой_1" xmlns="http://www.w3.org/2000/svg" xmlns:xlink="http://www.w3.org/1999/xlink" x="0px" y="0px"
	 viewBox="0 0 66 66" style="enable-background:new 0 0 66 66;" xml:space="preserve">
<style type="text/css">
	.st0{opacity:0.369;fill:#FFFFFF;enable-background:new    ;}
	.st1{opacity:0.4;fill:url(#SVGID_1_);}
	.st2{opacity:0.588;fill:#FFFFFF;enable-background:new    ;}
	.st3{opacity:0.3;fill:url(#SVGID_2_);}
	.st4{fill:#006FEB;}
	.st5{fill:#1A1A25;fill-opacity:0;}
</style>
<path class="st0" d="M38.5,21C50.9,21,61,31.1,61,43.5S50.9,66,38.5,66S16,55.9,16,43.5S26.1,21,38.5,21z"/>
<linearGradient id="SVGID_1_" gradientUnits="userSpaceOnUse" x1="-748.4778" y1="815.9778" x2="-748.4778" y2="816.9778" gradientTransform="matrix(45 0 0 -45 33720 36785)">
	<stop  offset="0" style="stop-color:#FFFFFF"/>
	<stop  offset="0.76" style="stop-color:#BDE4F4"/>
	<stop  offset="1" style="stop-color:#7BC8E9"/>
</linearGradient>
<path class="st1" d="M38.5,21C50.9,21,61,31.1,61,43.5S50.9,66,38.5,66S16,55.9,16,43.5S26.1,21,38.5,21z"/>
<path class="st2" d="M11,0c6.1,0,11,4.9,11,11s-4.9,11-11,11S0,17.1,0,11S4.9,0,11,0z"/>
<linearGradient id="SVGID_2_" gradientUnits="userSpaceOnUse" x1="-730.6818" y1="798.1818" x2="-730.6818" y2="799.1818" gradientTransform="matrix(22 0 0 -22 16086 17582)">
	<stop  offset="0" style="stop-color:#7BC8E9"/>
	<stop  offset="0.24" style="stop-color:#BDE4F4"/>
	<stop  offset="1" style="stop-color:#FFFFFF"/>
</linearGradient>
<path class="st3" d="M11,0c6.1,0,11,4.9,11,11s-4.9,11-11,11S0,17.1,0,11S4.9,0,11,0z"/>
<path class="st4" d="M34.7,16.3l6.1-8.2c0.2-0.3,0.3-0.8,0.1-1.1c-0.2-0.4-0.6-0.6-1-0.6H13.6V5c0.9-0.4,1.5-1.3,1.5-2.4
	C15.1,1.2,14,0,12.5,0S9.9,1.2,9.9,2.6c0,1,0.6,2,1.5,2.4v39.9h-1.4c-0.6,0-1.1,0.5-1.1,1.1c0,0.6,0.5,1.1,1.1,1.1H15
	c0.6,0,1.1-0.5,1.1-1.1c0-0.6-0.5-1.1-1.1-1.1h-1.4V26.2h26.3c0.4,0,0.8-0.2,1-0.6c0.2-0.4,0.1-0.8-0.1-1.1L34.7,16.3z M12.5,3.2
	c-0.4,0-0.6-0.3-0.6-0.6c0-0.4,0.3-0.6,0.6-0.6c0.4,0,0.6,0.3,0.6,0.6C13.2,3,12.9,3.2,12.5,3.2z M13.6,24.1L13.6,24.1v-3.6H17
	c0.6,0,1.1-0.5,1.1-1.1c0-0.6-0.5-1.1-1.1-1.1h-3.4v-4H19c0.6,0,1.1-0.5,1.1-1.1c0-0.6-0.5-1.1-1.1-1.1h-5.4V8.5h24.2l-5.3,7.1
	c-0.3,0.4-0.3,0.9,0,1.3l5.3,7.1H13.6L13.6,24.1z"/>
<path class="st5" d="M0,0h66v66H0V0z"/>
</svg>

<svg id="Слой_1" data-name="Слой 1" xmlns="http://www.w3.org/2000/svg" xmlns:xlink="http://www.w3.org/1999/xlink" viewBox="0 0 66 66"><defs><style>.cls-1,.cls-3{fill:#fff;}.cls-1{opacity:0.37;}.cls-1,.cls-2,.cls-3,.cls-4{isolation:isolate;}.cls-2{opacity:0.4;fill:url(#Безымянный_градиент);}.cls-3{opacity:0.59;}.cls-4{opacity:0.3;fill:url(#Безымянный_градиент_2);}.cls-5{fill:#11a2f6;}.cls-6{fill:#1a1a25;fill-opacity:0;}</style><linearGradient id="Безымянный_градиент" x1="-1014.43" y1="-377.93" x2="-1014.43" y2="-378.93" gradientTransform="translate(45688 17073) scale(45)" gradientUnits="userSpaceOnUse"><stop offset="0" stop-color="#fff"/><stop offset="0.76" stop-color="#bde4f4"/><stop offset="1" stop-color="#7bc8e9"/></linearGradient><linearGradient id="Безымянный_градиент_2" x1="-990.32" y1="-351.73" x2="-990.32" y2="-352.73" gradientTransform="translate(21798 7760) scale(22)" gradientUnits="userSpaceOnUse"><stop offset="0" stop-color="#7bc8e9"/><stop offset="0.24" stop-color="#bde4f4"/><stop offset="1" stop-color="#fff"/></linearGradient></defs><title>flag</title><path class="cls-1" d="M38.5,21A22.5,22.5,0,1,1,16,43.5,22.53,22.53,0,0,1,38.5,21Z"/><path class="cls-2" d="M38.5,21A22.5,22.5,0,1,1,16,43.5,22.53,22.53,0,0,1,38.5,21Z"/><path class="cls-3" d="M11,0A11,11,0,1,1,0,11,11,11,0,0,1,11,0Z"/><path class="cls-4" d="M11,0A11,11,0,1,1,0,11,11,11,0,0,1,11,0Z"/><path class="cls-5" d="M34.7,16.3l6.1-8.2a1.07,1.07,0,0,0-.9-1.7H13.6V5a2.56,2.56,0,0,0,1.5-2.4,2.6,2.6,0,0,0-5.2,0A2.67,2.67,0,0,0,11.4,5V44.9H10a1.1,1.1,0,1,0,0,2.2h5a1.1,1.1,0,1,0,0-2.2H13.6V26.2H39.9a1.1,1.1,0,0,0,1-.6,1.07,1.07,0,0,0-.1-1.1ZM12.5,3.2a.58.58,0,0,1-.6-.6.6.6,0,1,1,1.2,0C13.2,3,12.9,3.2,12.5,3.2Zm1.1,20.9h0V20.5H17a1.1,1.1,0,1,0,0-2.2H13.6v-4H19a1.1,1.1,0,1,0,0-2.2H13.6V8.5H37.8l-5.3,7.1a1.05,1.05,0,0,0,0,1.3L37.8,24H13.6Z"/><path class="cls-6" d="M0,0H66V66H0Z"/></svg>
